X:160
T:Miss Hutchinson's Frolick THO1.160
M:C|
L:1/8
Z:vmp. Peter Dunk 2012.from a transcription by Fynn Titford-Mock 2006
B:Thompson's Compleat Collection of 200 Favourite Country Dances Vol.I,1758
Q:1/2=60
K:D
(3dcd (3dcd (3dAG (3FED|(3ede (3ede (3ebd (3cBA|\
(3dcd (3dcd (3dba (3^gfe|(3dcB (3ca^g a2 A2:|
L:1/16
|:defd defd BcdB G4|efge efge cdec A4|\
fgaf defd BcdB [L:1/8]G>g|(3fed (3Adc d2 D2:|

